X:1
T:Title
%%score ( 1 2 ) { 3 | 4 }
L:1/8
Q:1/4=102
M:4/4
K:Db
V:1 treble nm="Grand Piano, Soprano"
V:2 treble 
V:3 bass nm="Choir Pad, The Wonderful Savior"
V:4 bass 
V:1
 DE [DF]2 [DF]2 [DF]2 | [DF][EG] [FA]2 [FA]2 [FA]2- | [FA]2 [Fd][Fd]- [Fd][FA][GB][FA] | %3
w: By~Charles~Hutchinson~Gabriel * * * *|||
 [DF]2 [DF]4 [CE]2 | DE [DF]2 [DF]2 [DF]2 | [DF][EG] [FA]2 [FA]2 [FA]2- | %6
w: |||
 [FA]2 [Fd][Fd]- [Fd][FA][GB][FA] | [DF]2 [CE]4 D2 | [FA]2 [GB]2 [GB]2 [GB]2 | %9
w: |||
 [Gd]2 [Fd]2 [EB]2 [DA]2 | [DF]2 [CA]2 [CE]2 [CE]2 | [EG][GB] [GB]2 [FA]2 [FA]2 | %12
w: |||
 [FA]2 [GB]2 [GB]2 [GB]2 | [Gd]2 [Fd]2 [EB]2 [DA]2 | [DF][EG][FA][FA] D2 [DF][DF] | %15
w: |||
 [CE]2 [CE]4 D2- | D2 [Fd][Fd] [Ad]2 [Gd][Gd] | [GB]2 [FA]4 [DF]2 | z2 [Fd][Fd] [Bd]2 [=Gd][Gc] | %19
w: ||||
 [=GB]2 [EB]4 [EA]2 | .B2 z2 z4 | [GB]2 [FA][FA] [Fd]2 [FA]2 | [DF][EG][FA][FA] D2 [DF][DF] | %23
w: ||||
 [CE]2 [CE]4 D2- | D6 z2 |] %25
w: ||
V:2
 x8 | x8 | x8 | x8 | x8 | x8 | x8 | x8 | x8 | x8 | x8 | x8 | x8 | x8 | x8 | x8 | x8 | x8 | x8 | %19
 x8 | G-[Gc] [Fd]2 [Fd]2 [Ac]2 | x8 | x8 | x8 | x8 |] %25
V:3
 F,G, A,2 A,2 A,2 | A,2[K:treble] D2 D2 D2- | D2 A,A,- A,DDD | A,2 A,4 A,2 | F,G, A,2 A,2 A,2 | %5
 A,2[K:treble] D2 D2 D2- | D2 A,A,- A,DDD | A,2 G,4 F,2 | D2 D2 D2 D2 | B,2 A,2 G,2 F,2 | %10
 A,2 A,2 A,2 A,2 | C2 D2 D2 D2 | D2 D2 D2 D2 | B,2 A,2 G,2 F,2 | A,A,DD F,2 A,A, | G,2 G,4 F,2- | %16
 F,2 A,A,[K:treble] D2 B,B, | D2 D4 A,2 | z2 B,D F2 EE | D2 D4 C2 | A,2 A,2 A,2 D2 | %21
 D2[K:treble] DD A,2 D2 | A,A,DD[K:bass] F,2 A,A, | G,2 G,4 F,2- | F,6 z2 |] %25
V:4
 D,2 D,2 D,2 D,2 | D,2 D,2 D,2 D,2- | D,2 D,D,- D,D,D,D, | D,2 A,,4 A,,2 | D,2 D,2 D,2 D,2 | %5
 D,2 D,2 D,2 D,2- | D,2 D,D,- D,D,D,D, | D,2 A,,4 D,2 | D,2 G,2 G,2 G,2 | G,2 D,2 D,2 D,2 | %10
 D,2 A,,2 A,,2 A,,2 | A,,2 D,2 D,2 D,2 | D,2 G,2 G,2 G,2 | G,2 D,2 D,2 D,2 | %14
 D,D,A,,A,, A,,2 A,,A,, | A,,2 A,,4 D,2- | D,2 D,D, F,2 G,G, | G,2 D,4 D,2 | z2 B,,B,, B,,2 E,E, | %19
 E,2 E,4 A,,2 | z2 D,2 D,2 F,2 | G,2 D,D, D,2 D,2 | D,D,A,,A,, A,,2 A,,A,, | A,,2 A,,4 D,2- | %24
 D,6 z2 |] %25

